!!! OTL: Berkowitz288
!!! Chapter: 1
!!! Section: III
!!! Page: 69
!!! Mode: 
!!! Encoder: DJB
**kern
*staff1
*I"Piano
=1-
*clefF4
*k[b-]
*d:
*M3/4
4A\
4F\
4D\
=2
2BB-/
4AA/
=3
2B-\
4A\
=4
4G\
4E\
4C#/
=5
2AA/
4B-\
=6
4.A\
8G\
8F\L
8E\J
=7
4F\
4r
4F#\
=8
4G\
4E\
4C#/
=9
4AA/
4r
4B-\
=10
4.A\
8G\
8F\L
8E\J
=11
!!linebreak:original
2D\
4r
==
*-
